X: 14
T:The Rose, Fieldtown
M:6/8
L:1/8
A:Fieldtown
P:AAB(CB)2
K:A
P:A
|:(E/F/G/|AEA  A2B| cBc def| ecA dBG|A>BA A2 :|
P:B
|:c/d/  |efe  ecA| Bdc BGE| FGA dBG|A>BA A2 :|
P:C
(E/F/G/ |:(2AE A3 | A3  B3 |(2cB c3 |(2de f3  |
(2ec A3 |(2dB G3 |(2AB A3 |1A3  EFG:|2A3-A2||
